svg/color/edge.svg

<?xml version="1.0" encoding="UTF-8" ?>
<!DOCTYPE svg PUBLIC "-//W3C//DTD SVG 1.1//EN" "http://www.w3.org/Graphics/SVG/1.1/DTD/svg11.dtd">
<svg width="250pt" height="250pt" viewBox="0 0 250 250" version="1.1" xmlns="http://www.w3.org/2000/svg">
<g id="#ffffffff">
<path fill="#ffffff" opacity="1.00" d=" M 0.00 0.00 L 250.00 0.00 L 250.00 250.00 L 0.00 250.00 L 0.00 0.00 M 48.00 29.85 C 25.00 48.49 9.36 75.84 4.64 105.05 C 0.77 129.96 4.16 156.12 15.39 178.80 C 28.43 206.08 52.07 228.02 80.19 239.14 C 100.24 247.36 122.48 249.54 143.89 246.68 C 174.38 242.31 202.92 225.93 222.08 201.81 C 211.63 193.87 200.63 186.67 190.01 178.96 C 188.41 177.89 186.96 176.38 184.95 176.25 C 167.48 197.28 137.99 207.27 111.25 201.92 C 92.52 198.31 75.10 187.72 63.65 172.41 C 51.14 156.00 45.39 134.51 48.45 114.07 C 50.76 97.09 58.98 81.09 71.10 69.02 C 83.26 57.33 99.13 49.42 115.91 47.35 C 135.37 44.65 155.70 49.93 171.62 61.37 C 185.65 71.30 196.10 86.13 200.95 102.60 C 176.01 102.65 151.07 102.65 126.12 102.61 C 125.80 117.53 125.79 132.48 126.13 147.40 C 166.33 147.39 206.53 147.28 246.73 147.45 C 248.65 139.45 248.79 131.15 248.79 122.97 C 248.64 85.68 229.94 49.13 200.11 26.84 C 178.98 10.89 152.58 1.84 126.06 2.18 C 97.85 1.80 69.77 11.99 48.00 29.85 Z" />
</g>
<g id="#0ecc5fff">
<path fill="#0ecc5f" opacity="1.00" d=" M 48.00 29.85 C 69.77 11.99 97.85 1.80 126.06 2.18 C 152.58 1.84 178.98 10.89 200.11 26.84 C 229.94 49.13 248.64 85.68 248.79 122.97 C 248.79 131.15 248.65 139.45 246.73 147.45 C 206.53 147.28 166.33 147.39 126.13 147.40 C 125.79 132.48 125.80 117.53 126.12 102.61 C 151.07 102.65 176.01 102.65 200.95 102.60 C 196.10 86.13 185.65 71.30 171.62 61.37 C 155.70 49.93 135.37 44.65 115.91 47.35 C 99.13 49.42 83.26 57.33 71.10 69.02 C 58.98 81.09 50.76 97.09 48.45 114.07 C 45.39 134.51 51.14 156.00 63.65 172.41 C 75.10 187.72 92.52 198.31 111.25 201.92 C 137.99 207.27 167.48 197.28 184.95 176.25 C 186.96 176.38 188.41 177.89 190.01 178.96 C 200.63 186.67 211.63 193.87 222.08 201.81 C 202.92 225.93 174.38 242.31 143.89 246.68 C 122.48 249.54 100.24 247.36 80.19 239.14 C 52.07 228.02 28.43 206.08 15.39 178.80 C 4.16 156.12 0.77 129.96 4.64 105.05 C 9.36 75.84 25.00 48.49 48.00 29.85 Z" />
</g>
</svg>

<?xml version="1.0" encoding="utf-8"?>
<!-- Generator: Adobe Illustrator 26.0.3, SVG Export Plug-In . SVG Version: 6.00 Build 0)  -->
<svg version="1.1" id="Layer_1" xmlns="http://www.w3.org/2000/svg" xmlns:xlink="http://www.w3.org/1999/xlink" x="0px" y="0px"
	 viewBox="0 0 250 250" style="enable-background:new 0 0 250 250;" xml:space="preserve">
<style type="text/css">
	.st0{fill:#0ECC5F;}
</style>
<g id="_x23_0ecc5fff">
	<path class="st0" d="M48,29.9C69.8,12,97.8,1.8,126.1,2.2c26.5-0.3,52.9,8.7,74.1,24.7c29.8,22.3,48.5,58.8,48.7,96.1
		c0,8.2-0.1,16.5-2.1,24.5c-40.2-0.2-80.4-0.1-120.6-0.1c-0.3-14.9-0.3-29.9,0-44.8c25,0,49.9,0,74.8,0
		c-4.8-16.5-15.3-31.3-29.3-41.2c-15.9-11.4-36.2-16.7-55.7-14c-16.8,2.1-32.7,10-44.8,21.7C59,81.1,50.8,97.1,48.5,114.1
		c-3.1,20.4,2.7,41.9,15.2,58.3c11.4,15.3,28.9,25.9,47.6,29.5c26.7,5.4,56.2-4.6,73.7-25.7c2,0.1,3.5,1.6,5.1,2.7
		c10.6,7.7,21.6,14.9,32.1,22.8c-19.2,24.1-47.7,40.5-78.2,44.9c-21.4,2.9-43.7,0.7-63.7-7.5c-28.1-11.1-51.8-33.1-64.8-60.3
		C4.2,156.1,0.8,130,4.6,105.1C9.4,75.8,25,48.5,48,29.9z"/>
</g>
</svg>
